frontend/public/back.svg

<svg width="17" height="18" viewBox="0 0 17 18" fill="none" xmlns="http://www.w3.org/2000/svg">
<path d="M3.9 9.64688L8.8 15.1594C9 15.3844 9.09583 15.6469 9.0875 15.9469C9.07917 16.2469 8.975 16.5094 8.775 16.7344C8.575 16.9406 8.34167 17.0484 8.075 17.0578C7.80833 17.0672 7.575 16.9594 7.375 16.7344L0.775 9.30938C0.675 9.19688 0.604167 9.075 0.5625 8.94375C0.520833 8.8125 0.5 8.67188 0.5 8.52188C0.5 8.37188 0.520833 8.23125 0.5625 8.1C0.604167 7.96875 0.675 7.84688 0.775 7.73438L7.375 0.309375C7.55833 0.103125 7.7875 0 8.0625 0C8.3375 0 8.575 0.103125 8.775 0.309375C8.975 0.534375 9.075 0.801563 9.075 1.11094C9.075 1.42031 8.975 1.6875 8.775 1.9125L3.9 7.39688H15.075C15.3583 7.39688 15.5958 7.50469 15.7875 7.72031C15.9792 7.93594 16.075 8.20313 16.075 8.52188C16.075 8.84063 15.9792 9.10781 15.7875 9.32344C15.5958 9.53906 15.3583 9.64688 15.075 9.64688H3.9Z" fill="#202022"/>
</svg>

<svg fill="none" viewBox="0 0 17 18"><path fill="#202022" d="m3.9 9.647 4.9 5.512q.3.338.287.788-.012.45-.312.787a1 1 0 0 1-.7.324q-.4.014-.7-.324L.775 9.31q-.15-.168-.213-.365A1.4 1.4 0 0 1 .5 8.522q0-.224.063-.422.062-.197.212-.366L7.375.31A.88.88 0 0 1 8.063 0a.96.96 0 0 1 .712.31q.3.337.3.8 0 .464-.3.803L3.9 7.397h11.175q.424 0 .713.323.287.324.287.802t-.287.801a.92.92 0 0 1-.713.324z"/></svg>
